packages/kaspersky-hexa-ui-icons/src/iconsSVGs/28x20/FlagMo.svg

<svg width="28" height="20" viewBox="0 0 28 20" fill="none" xmlns="http://www.w3.org/2000/svg">
<g clip-path="url(#clip0_5138_1327)">
<rect width="28" height="20" rx="2" fill="white"/>
<mask id="mask0_5138_1327" style="mask-type:luminance" maskUnits="userSpaceOnUse" x="0" y="0" width="28" height="20">
<rect width="28" height="20" rx="2" fill="white"/>
</mask>
<g mask="url(#mask0_5138_1327)">
<path fill-rule="evenodd" clip-rule="evenodd" d="M0 20H28V0H0V20Z" fill="#079D7B"/>
</g>
<g clip-path="url(#clip1_5138_1327)">
<path fill-rule="evenodd" clip-rule="evenodd" d="M15.885 8.66667C15.885 8.95853 15.8638 9.24163 15.824 9.51141C15.9262 9.47997 16.0304 9.44999 16.1363 9.42162C17.9145 8.94515 19.5017 9.10236 19.6813 9.77276C19.8609 10.4432 18.565 11.3729 16.7868 11.8494C16.5619 11.9096 16.34 11.9598 16.1237 12H19.3333C19.1752 12.4747 18.9624 12.922 18.7028 13.3333H9.29718C9.03766 12.922 8.82482 12.4747 8.66668 12H11.8332C11.6423 11.9626 11.4474 11.9175 11.2502 11.8647C9.47196 11.3882 8.17605 10.4585 8.35568 9.78808C8.53532 9.11767 10.1225 8.96046 11.9007 9.43693C11.9941 9.46195 12.0861 9.48822 12.1767 9.51563C12.1364 9.24458 12.115 8.96005 12.115 8.66667C12.115 6.82572 12.9589 5.33333 14 5.33333C15.0411 5.33333 15.885 6.82572 15.885 8.66667ZM14 16C15.3467 16 16.5835 15.5005 17.5548 14.6667H10.4452C11.4165 15.5005 12.6533 16 14 16ZM14 12C15.841 12 17.3333 11.7015 17.3333 11.3333C17.3333 10.9651 15.841 10.6667 14 10.6667C12.1591 10.6667 10.6667 10.9651 10.6667 11.3333C10.6667 11.7015 12.1591 12 14 12Z" fill="white"/>
<path fill-rule="evenodd" clip-rule="evenodd" d="M14.6667 3.33333C14.6667 3.70152 14.3682 4 14 4C13.6318 4 13.3333 3.70152 13.3333 3.33333C13.3333 2.96514 13.6318 2.66667 14 2.66667C14.3682 2.66667 14.6667 2.96514 14.6667 3.33333ZM9.33333 6.66667C9.33333 7.03486 9.03486 7.33333 8.66667 7.33333C8.29848 7.33333 8 7.03486 8 6.66667C8 6.29848 8.29848 6 8.66667 6C9.03486 6 9.33333 6.29848 9.33333 6.66667ZM19.3333 7.33333C19.7015 7.33333 20 7.03486 20 6.66667C20 6.29848 19.7015 6 19.3333 6C18.9651 6 18.6667 6.29848 18.6667 6.66667C18.6667 7.03486 18.9651 7.33333 19.3333 7.33333ZM18 4.66667C18 5.03486 17.7015 5.33333 17.3333 5.33333C16.9651 5.33333 16.6667 5.03486 16.6667 4.66667C16.6667 4.29848 16.9651 4 17.3333 4C17.7015 4 18 4.29848 18 4.66667ZM10.6667 5.33333C11.0349 5.33333 11.3333 5.03486 11.3333 4.66667C11.3333 4.29848 11.0349 4 10.6667 4C10.2985 4 10 4.29848 10 4.66667C10 5.03486 10.2985 5.33333 10.6667 5.33333Z" fill="#FCD117"/>
</g>
</g>
<defs>
<clipPath id="clip0_5138_1327">
<rect width="28" height="20" fill="white"/>
</clipPath>
<clipPath id="clip1_5138_1327">
<rect width="12" height="14" fill="white" transform="translate(8 2.66667)"/>
</clipPath>
</defs>
</svg>

<svg xmlns="http://www.w3.org/2000/svg" width="28" height="20" fill="none" viewBox="0 0 28 20"><g clip-path="url(#a)"><rect width="28" height="20" fill="#fff" rx="2"/><mask id="b" width="28" height="20" x="0" y="0" maskUnits="userSpaceOnUse" style="mask-type:luminance"><rect width="28" height="20" fill="#fff" rx="2"/></mask><g mask="url(#b)"><path fill="#079d7b" fill-rule="evenodd" d="M0 20h28V0H0z" clip-rule="evenodd"/></g><g fill-rule="evenodd" clip-path="url(#c)" clip-rule="evenodd"><path fill="#fff" d="M15.885 8.6667c0 .2918-.0212.575-.061.8447a9 9 0 0 1 .3123-.0898c1.7782-.4764 3.3654-.3192 3.545.3512s-1.1163 1.6001-2.8945 2.0766a8.8 8.8 0 0 1-.6631.1506h3.2096a6.12 6.12 0 0 1-.6305 1.3333H9.2972A6.13 6.13 0 0 1 8.6667 12h3.1665a8.8 8.8 0 0 1-.583-.1353c-1.7782-.4765-3.0741-1.4062-2.8945-2.0766s1.7668-.8276 3.545-.3512a9 9 0 0 1 .276.0787 5.8 5.8 0 0 1-.0617-.849c0-1.8409.8439-3.3333 1.885-3.3333s1.885 1.4924 1.885 3.3334M14 16c1.3467 0 2.5835-.4995 3.5548-1.3333h-7.1096C11.4165 15.5005 12.6533 16 14 16m0-4c1.841 0 3.3333-.2985 3.3333-.6667S15.841 10.6667 14 10.6667s-3.3333.2984-3.3333.6666S12.1591 12 14 12"/><path fill="#fcd117" d="M14.6667 3.3333a.6667.6667 0 1 1-1.3334 0 .6667.6667 0 0 1 1.3334 0M9.3333 6.6667a.6667.6667 0 1 1-1.3333 0 .6667.6667 0 0 1 1.3333 0m10 .6666a.6667.6667 0 1 0 0-1.3333.6667.6667 0 0 0 0 1.3333M18 4.6667a.6667.6667 0 1 1-1.3334 0 .6667.6667 0 0 1 1.3334 0m-7.3333.6666a.6666.6666 0 0 0 .6666-.6666.6666.6666 0 1 0-1.3333 0c0 .3682.2985.6666.6667.6666"/></g></g><defs><clipPath id="a"><path fill="#fff" d="M0 0h28v20H0z"/></clipPath><clipPath id="c"><path fill="#fff" d="M8 2.6667h12v14H8z"/></clipPath></defs></svg>
